assets/svg/Boarding.svg

<svg width="24" height="24" viewBox="0 0 24 24" fill="none" xmlns="http://www.w3.org/2000/svg">
<mask id="mask0_3_114" style="mask-type:alpha" maskUnits="userSpaceOnUse" x="0" y="0" width="24" height="24">
<rect width="24" height="24" fill="#D9D9D9"/>
</mask>
<g mask="url(#mask0_3_114)">
<path d="M8.5 6C7.95 6 7.47933 5.804 7.088 5.412C6.696 5.02067 6.5 4.55 6.5 4C6.5 3.45 6.696 2.979 7.088 2.587C7.47933 2.19567 7.95 2 8.5 2C9.05 2 9.521 2.19567 9.913 2.587C10.3043 2.979 10.5 3.45 10.5 4C10.5 4.55 10.3043 5.02067 9.913 5.412C9.521 5.804 9.05 6 8.5 6ZM14 20H7.55C7 20 6.496 19.8043 6.038 19.413C5.57933 19.021 5.29167 18.55 5.175 18L3 7H5.05L7.25 18H14V20ZM19.5 22L16.6 17H9.65C9.16667 17 8.746 16.854 8.388 16.562C8.02933 16.2707 7.8 15.8833 7.7 15.4L6.6 10.05C6.41667 9.25 6.604 8.54167 7.162 7.925C7.72067 7.30833 8.4 7 9.2 7C9.78333 7 10.3127 7.175 10.788 7.525C11.2627 7.875 11.5667 8.35 11.7 8.95L12.8 14H16.05C16.4 14 16.725 14.0917 17.025 14.275C17.325 14.4583 17.5667 14.7 17.75 15L21.25 21L19.5 22Z" fill="#081B31"/>
</g>
</svg>

<svg width="24" height="24" fill="none" xmlns="http://www.w3.org/2000/svg">
    <mask id="a" style="mask-type:alpha" maskUnits="userSpaceOnUse" x="0" y="0" width="24" height="24">
        <path fill="#D9D9D9" d="M0 0h24v24H0z"/>
    </mask>
    <g mask="url(#a)">
        <path d="M8.5 6c-.55 0-1.02-.196-1.412-.588A1.923 1.923 0 0 1 6.5 4c0-.55.196-1.021.588-1.413A1.925 1.925 0 0 1 8.5 2c.55 0 1.021.196 1.413.587.391.392.587.863.587 1.413s-.196 1.02-.587 1.412A1.927 1.927 0 0 1 8.5 6ZM14 20H7.55c-.55 0-1.054-.196-1.512-.587-.459-.392-.746-.863-.863-1.413L3 7h2.05l2.2 11H14v2Zm5.5 2-2.9-5H9.65a1.957 1.957 0 0 1-1.95-1.6l-1.1-5.35c-.183-.8.004-1.508.562-2.125C7.721 7.308 8.4 7 9.2 7c.583 0 1.113.175 1.588.525.475.35.779.825.912 1.425L12.8 14h3.25c.35 0 .675.092.975.275.3.183.542.425.725.725l3.5 6-1.75 1Z" fill="#081B31"/>
    </g>
</svg>
